X:1
T:MENUETT No. 1 mit TRIO
T:ALLEGRO in C MAJOR
T:für das Pianoforte
T:W. A. Mozart
T:Köch. Verz. No. 1b
C:W. A. Mozart
Z:Köch. Verz. No. 1
%%score { 1 | 2 }
L:1/8
Q:1/4=117
M:2/4
K:C
V:1 alto1 nm="Piano" snm="Pno."
V:2 bass 
V:1
 G z A z | B z c z | d z e z | z (c'/a/) z (c'/a/) | edcB |{/d} c/B/c{/d} c/B/c | %6
 z (c/A/) z (c/A/) | EDCB, | C[EG]C[EG] |[Q:1/4=110] [EG][Ge][Q:1/4=100][Ec][Ge] | %10
[Q:1/4=95] [Ec]2[Q:1/4=90] [EGc]2 | [EGc]4 |] %12
V:2
 z E z F | z D z E | z B, z C | E z F2 | G2 z2 | A,2 E,2 | E, z F, z | G,2 G,,2 | C,2 z2 | C,2 z2 | %10
 C,2 C,,2 | C,,4 |] %12

